lib/brands/logos/ahref.svg

<svg xmlns="http://www.w3.org/2000/svg" fill="none" aria-hidden="true" viewBox="0 0 207 58"><g id="ahref"><g id="Group"><path id="Vector" fill="#FF8800" d="M14.0984 24.1886H32.0841V29.2433L25.3206 29.7626C14.3952 30.5812 10.9775 33.472 10.9775 41.5809V43.2155C10.9775 49.1505 15.1395 52.729 21.5296 52.729C26.5843 52.729 29.4826 51.5393 33.0511 47.8969H33.6446V51.7619H40.8531V16.3098H14.0984V24.1886ZM32.0841 41.2841C29.8585 43.5097 26.5101 44.9936 23.7602 44.9936C20.7927 44.9936 19.524 43.8783 19.5982 41.425C19.6724 38.0075 20.9361 37.1889 26.6585 36.6695L32.0841 36.1502V41.2841Z"/><path id="Vector_2" fill="black" fill-rule="evenodd" d="M56.0111 16.3123H69.909V23.5209H77.4886V51.7619H68.6455V24.2653H56.0111V51.7619H47.1655V5.68355H56.0111V16.3123ZM185.335 30.5812L179.983 30.0593C177.015 29.7626 176.274 29.0207 176.274 26.6418C176.274 23.9661 177.315 23.2959 181.467 23.2959C185.176 23.2959 186.222 23.8919 186.744 26.4192H195.068C194.845 17.9469 192.244 15.7856 181.912 15.7856C170.615 15.7856 167.791 17.942 167.791 26.6368C167.791 34.5899 169.871 36.7439 178.272 37.5622L182.656 38.0075C186.596 38.3783 187.56 39.1228 187.56 41.5017C187.56 44.4001 186.371 45.1418 181.541 45.1418C177.305 45.1418 176.189 44.4742 175.967 41.7243H167.559C167.781 50.4933 170.457 52.7239 181.16 52.7239C193.05 52.7239 196.022 50.345 196.022 40.6833C196.035 33.4794 193.881 31.3973 185.335 30.5812ZM139.804 31.249C139.804 19.8041 135.867 15.7905 124.568 15.7905C113.42 15.7905 109.035 20.9837 109.035 33.9246C109.035 48.0476 112.9 52.7191 125.387 52.7191C134.38 52.7191 138.169 49.9691 139.433 42.2388H130.886C129.919 44.6276 128.881 45.1469 125.25 45.1469C119.751 45.1469 118.338 43.5864 118.042 36.9713H139.222C139.577 35.0836 139.772 33.1692 139.804 31.249ZM118.104 29.9852C118.178 25.0072 120.183 23.15 124.941 23.15C129.474 23.15 131.331 25.0072 131.482 29.9852H118.104ZM144.952 17.8702V51.7619H153.798V23.8918H164.432V16.3098H153.798V15.3454C153.87 13.2631 154.392 12.6696 156.1 12.6696H165.762V5.68355H155.354C148.296 5.68355 144.952 7.83749 144.952 17.8702ZM92.8178 51.7619H83.9744V16.3123H105.974V24.6362H92.8178V51.7619Z" clip-rule="evenodd"/></g></g></svg>

<svg xmlns="http://www.w3.org/2000/svg" fill="none" aria-hidden="true" viewBox="0 0 207 58"><path fill="#F80" d="M14.098 24.189h17.986v5.054l-6.763.52c-10.926.818-14.344 3.709-14.344 11.818v1.634c0 5.935 4.162 9.514 10.553 9.514 5.054 0 7.953-1.19 11.521-4.832h.594v3.865h7.208V16.31H14.098v7.879Zm17.986 17.095c-2.226 2.226-5.574 3.71-8.324 3.71-2.967 0-4.236-1.116-4.162-3.569.074-3.417 1.338-4.236 7.06-4.755l5.426-.52v5.134Z"/><path fill="#000" fill-rule="evenodd" d="M56.011 16.312H69.91v7.209h7.58v28.24h-8.844V24.266H56.011v27.497h-8.846V5.684h8.846v10.628Zm129.324 14.27-5.352-.523c-2.968-.296-3.709-1.038-3.709-3.417 0-2.676 1.041-3.346 5.193-3.346 3.709 0 4.755.596 5.277 3.123h8.324c-.223-8.472-2.824-10.633-13.156-10.633-11.297 0-14.121 2.156-14.121 10.85 0 7.954 2.08 10.108 10.481 10.926l4.384.446c3.94.37 4.904 1.115 4.904 3.494 0 2.898-1.189 3.64-6.019 3.64-4.236 0-5.352-.668-5.574-3.418h-8.408c.222 8.77 2.898 11 13.601 11 11.89 0 14.862-2.379 14.862-12.04.013-7.205-2.141-9.287-10.687-10.103Zm-45.531.667c0-11.445-3.937-15.458-15.236-15.458-11.148 0-15.533 5.193-15.533 18.134 0 14.123 3.865 18.794 16.352 18.794 8.993 0 12.782-2.75 14.046-10.48h-8.547c-.967 2.389-2.005 2.908-5.636 2.908-5.499 0-6.912-1.56-7.208-8.176h21.18c.355-1.887.55-3.802.582-5.722Zm-21.7-1.264c.074-4.978 2.079-6.835 6.837-6.835 4.533 0 6.39 1.857 6.541 6.835h-13.378Zm26.848-12.115v33.892h8.846v-27.87h10.634V16.31h-10.634v-.965c.072-2.082.594-2.675 2.302-2.675h9.662V5.684h-10.408c-7.058 0-10.402 2.153-10.402 12.186ZM92.818 51.762h-8.844v-35.45h22v8.324H92.818v27.126Z" clip-rule="evenodd"/></svg>
